svgs/light/gavel.svg

<svg xmlns="http://www.w3.org/2000/svg" viewBox="0 0 512 512"><!--! Font Awesome Pro 6.3.0 by @fontawesome - https://fontawesome.com License - https://fontawesome.com/license (Commercial License) Copyright 2023 Fonticons, Inc. --><path d="M512 208.3c0-9.103-7.43-16-15.99-16c-4.091 0-8.183 1.562-11.31 4.688l-12.7 12.7L302.4 40l12.68-12.69C318.2 24.19 319.8 20.09 319.8 16c0-9.103-7.43-16-15.99-16c-4.091 0-8.183 1.562-11.31 4.688l-143.9 144C145.5 151.8 143.9 155.9 143.9 160c0 9.103 7.43 16 15.99 16c4.091 0 8.183-1.562 11.31-4.688l12.68-12.69l73.39 73.44l-75.46 78.11L172.4 300.7c-8.456-8.437-19.56-12.67-30.64-12.67c-11.13 0-22.26 4.234-30.73 12.67l-98.31 98.38C4.232 407.6 0 418.7 0 429.8s4.232 22.23 12.7 30.7l38.76 38.78C59.65 507.5 70.55 512 82.14 512c11.6 0 22.5-4.5 30.69-12.72l98.31-98.34c8.464-8.469 12.7-19.59 12.7-30.7S219.6 348 211.1 339.5l-6.711-6.719l75.47-78.12l73.56 73.6l-12.66 12.67c-3.123 3.125-4.685 7.219-4.685 11.31c0 9.103 7.43 16 15.99 16c4.092 0 8.183-1.562 11.31-4.688l143.9-144C510.4 216.5 512 212.4 512 208.3zM191.9 370.2c0 2.922-1.113 5.844-3.338 8.078l-98.32 98.34c-2.139 2.156-5.095 3.234-8.054 3.234c-2.959 0-5.923-1.078-8.078-3.234l-38.76-38.78c-2.225-2.234-3.338-5.156-3.338-8.078s1.113-5.844 3.338-8.078l98.31-98.38c2.218-2.219 5.138-3.312 8.074-3.312c2.92 0 5.856 1.094 8.089 3.344l38.74 38.78C190.7 364.4 191.9 367.3 191.9 370.2zM206.5 136l73.33-73.38l169.6 169.7l-73.33 73.38L206.5 136z"/></svg>

<svg xmlns="http://www.w3.org/2000/svg" viewBox="0 0 512 512"><!-- Font Awesome Pro 6.0.0-alpha2 by @fontawesome - https://fontawesome.com License - https://fontawesome.com/license (Commercial License) --><path d="M512 208.281C512 199.178 504.57 192.281 496.009 192.281C491.917 192.281 487.826 193.844 484.703 196.969L472.006 209.672L302.443 40L315.124 27.312C318.247 24.188 319.809 20.094 319.809 16C319.809 6.897 312.378 0 303.817 0C299.726 0 295.634 1.562 292.511 4.688L148.59 148.688C145.467 151.812 143.905 155.906 143.905 160C143.905 169.103 151.336 176 159.897 176C163.988 176 168.08 174.438 171.203 171.312L183.883 158.625L257.275 232.062L181.812 310.172L172.374 300.719L172.358 300.688C163.902 292.25 152.817 288.047 141.73 288.047C130.602 288.047 119.473 292.281 111.002 300.719L12.696 399.094C4.232 407.562 0 418.68 0 429.797S4.232 452.031 12.696 460.5L51.456 499.281C59.655 507.5 70.555 512 82.142 512C93.745 512 104.646 507.5 112.829 499.281L211.134 400.938C219.598 392.469 223.83 381.352 223.83 370.234S219.598 348 211.134 339.531L204.423 332.813L279.891 254.695L353.446 328.297L340.782 340.969C337.658 344.094 336.097 348.188 336.097 352.281C336.097 361.384 343.527 368.281 352.088 368.281C356.179 368.281 360.271 366.719 363.394 363.594L507.315 219.594C510.438 216.469 512 212.375 512 208.281ZM191.859 370.234C191.859 373.156 190.747 376.078 188.521 378.312L90.2 476.656C88.061 478.812 85.106 479.891 82.146 479.891C79.187 479.891 76.224 478.812 74.069 476.656L35.309 437.875C33.083 435.641 31.971 432.719 31.971 429.797S33.083 423.953 35.309 421.719L133.614 323.344C135.832 321.125 138.752 320.031 141.688 320.031C144.608 320.031 147.544 321.125 149.777 323.375L188.521 362.156C190.747 364.391 191.859 367.312 191.859 370.234ZM206.496 136L279.831 62.625L449.394 232.297L376.059 305.672L206.496 136Z "></path></svg>
